svg/brand/edge.svg

<svg width="16" height="16" viewBox="0 0 16 16" fill="none" xmlns="http://www.w3.org/2000/svg">
<path d="M0.60498 7.09981H0.613983C0.705687 6.36402 0.881202 5.64111 1.13711 4.94515C1.39103 4.2553 1.7369 3.60285 2.16537 3.00546C2.58745 2.412 3.09275 1.88233 3.66574 1.43271C4.26732 0.970304 4.94403 0.614838 5.66623 0.381881C6.46241 0.122386 7.29544 -0.00626507 8.13284 0.000941871C9.42847 -0.0199035 10.7062 0.3056 11.8338 0.943791C12.9417 1.59058 13.8509 2.52882 14.4624 3.65636C15.1055 4.86938 15.4258 6.2273 15.3926 7.59973V9.27946H5.33415C5.32508 9.88714 5.49142 10.4846 5.81327 11.0002C6.10989 11.4728 6.53249 11.8533 7.03357 12.099C7.56888 12.3537 8.13991 12.5253 8.72699 12.6079C9.35628 12.7036 9.9957 12.7126 10.6275 12.6349C11.2601 12.5596 11.8835 12.4203 12.4879 12.219C13.0384 12.0433 13.5606 11.789 14.0383 11.4641V14.8336C13.3953 15.2 12.705 15.4766 11.9868 15.6554C11.0761 15.8885 10.1392 16.0037 9.19911 15.9984C8.23587 16.0181 7.27746 15.8573 6.37341 15.5245C5.23923 15.0839 4.26689 14.3073 3.58672 13.2988C2.88297 12.3301 2.49431 11.1684 2.47344 9.97135C2.41658 8.6713 2.76315 7.38547 3.46569 6.28994C4.19253 5.23585 5.1987 4.40494 6.37141 3.89032C6.09304 4.23426 5.8579 4.61101 5.67123 5.01214C5.47306 5.46761 5.33487 5.94688 5.26013 6.43791H10.9375C10.9875 6.01966 10.9631 5.59588 10.8655 5.18611C10.7921 4.85722 10.6489 4.54795 10.4454 4.27926C10.2636 4.05334 10.0516 3.8535 9.81526 3.68535C9.59571 3.52641 9.35274 3.40261 9.09508 3.31841C8.85102 3.24176 8.62763 3.18077 8.42491 3.13544C8.26061 3.09624 8.09332 3.07082 7.92479 3.05945L7.72474 3.05045C6.93664 3.07784 6.15594 3.21239 5.40417 3.45039C4.6976 3.66838 4.02444 3.98261 3.40367 4.38424C2.84229 4.75176 2.31803 5.17301 1.83829 5.64204C1.38226 6.08813 0.969327 6.57621 0.60498 7.09981V7.09981Z" fill="black"/>
</svg>

<svg id="Layer_1" data-name="Layer 1" xmlns="http://www.w3.org/2000/svg" viewBox="0 0 16 16"><title>edge</title><path d="M.608,7.1H.617A9.735,9.735,0,0,1,1.14,4.945a8.173,8.173,0,0,1,1.028-1.94,7.593,7.593,0,0,1,1.5-1.573,6.612,6.612,0,0,1,2-1.051A7.74,7.74,0,0,1,8.134,0a7.272,7.272,0,0,1,3.7.943,7.011,7.011,0,0,1,2.628,2.713A8.009,8.009,0,0,1,15.392,7.6v1.68H5.336a3.162,3.162,0,0,0,.479,1.721A3,3,0,0,0,7.035,12.1a5.829,5.829,0,0,0,1.693.509,6.973,6.973,0,0,0,1.9.027,9.4,9.4,0,0,0,1.86-.416,6,6,0,0,0,1.55-.755v3.37a8.09,8.09,0,0,1-2.051.822A10.988,10.988,0,0,1,9.2,16a7.716,7.716,0,0,1-2.825-.474A5.966,5.966,0,0,1,3.589,13.3,5.837,5.837,0,0,1,2.476,9.972,6.312,6.312,0,0,1,3.468,6.29a6.894,6.894,0,0,1,2.905-2.4,5.415,5.415,0,0,0-.7,1.122,5.74,5.74,0,0,0-.411,1.426h5.676a3.574,3.574,0,0,0-.072-1.252,2.351,2.351,0,0,0-.42-.907,3.162,3.162,0,0,0-.63-.594,2.61,2.61,0,0,0-.72-.367q-.366-.115-.67-.183a3.033,3.033,0,0,0-.5-.076l-.2-.009a8.683,8.683,0,0,0-2.32.4,8.05,8.05,0,0,0-2,.934A10.341,10.341,0,0,0,1.841,5.642,10.147,10.147,0,0,0,.608,7.1Z"/></svg>
